symbols/web/cyclone/materialsymbolsrounded/cyclone_gradN25_24px.svg

<svg xmlns="http://www.w3.org/2000/svg" height="24" width="24"><path d="M12 15.85q-1.575 0-2.712-1.125Q8.15 13.6 8.15 12t1.125-2.725Q10.4 8.15 12 8.15t2.725 1.125Q15.85 10.4 15.85 12q0 1.575-1.125 2.712Q13.6 15.85 12 15.85Zm0-1.875q.825 0 1.4-.575t.575-1.4q0-.825-.575-1.4t-1.4-.575q-.8 0-1.387.575-.588.575-.588 1.4 0 .8.575 1.387.575.588 1.4.588Zm5.8 7.8q-.525 0-.787-.35-.263-.35-.113-.875.25-1 .4-1.762.15-.763.225-1.288-1.075 1.05-2.488 1.663-1.412.612-3.037.612-3.075 0-5.325-.288-2.25-.287-3.775-.712-.275-.075-.475-.35-.2-.275-.2-.575 0-.525.35-.788.35-.262.875-.112 1.025.25 1.838.387.812.138 1.287.238-1.125-1.05-1.737-2.5-.613-1.45-.613-3.075 0-3.1.313-5.325.312-2.225.762-3.8.05-.25.325-.45t.575-.2q.525 0 .788.35.262.35.137.875-.275 1-.437 1.812-.163.813-.238 1.313 1.1-1.15 2.513-1.75 1.412-.6 3.037-.6 3.1 0 5.325.312 2.225.313 3.8.738.25.075.45.35.2.275.2.575 0 .525-.35.787-.35.263-.875.113-.95-.275-1.7-.425-.75-.15-1.35-.2 1.1 1.075 1.688 2.488.587 1.412.587 3.037 0 3.075-.337 5.337Q19.1 19.6 18.7 21.1q-.075.275-.337.475-.263.2-.563.2ZM12 17.9q2.475 0 4.188-1.725Q17.9 14.45 17.9 12q0-2.475-1.725-4.188Q14.45 6.1 12 6.1q-2.45 0-4.175 1.725Q6.1 9.55 6.1 12q0 2.45 1.725 4.175Q9.55 17.9 12 17.9Z"/></svg>

<svg xmlns="http://www.w3.org/2000/svg" height="24" width="24"><path d="M12 15.85Q10.425 15.85 9.288 14.725Q8.15 13.6 8.15 12Q8.15 10.4 9.275 9.275Q10.4 8.15 12 8.15Q13.6 8.15 14.725 9.275Q15.85 10.4 15.85 12Q15.85 13.575 14.725 14.712Q13.6 15.85 12 15.85ZM12 13.975Q12.825 13.975 13.4 13.4Q13.975 12.825 13.975 12Q13.975 11.175 13.4 10.6Q12.825 10.025 12 10.025Q11.2 10.025 10.613 10.6Q10.025 11.175 10.025 12Q10.025 12.8 10.6 13.387Q11.175 13.975 12 13.975ZM17.8 21.775Q17.275 21.775 17.013 21.425Q16.75 21.075 16.9 20.55Q17.15 19.55 17.3 18.788Q17.45 18.025 17.525 17.5Q16.45 18.55 15.037 19.163Q13.625 19.775 12 19.775Q8.925 19.775 6.675 19.487Q4.425 19.2 2.9 18.775Q2.625 18.7 2.425 18.425Q2.225 18.15 2.225 17.85Q2.225 17.325 2.575 17.062Q2.925 16.8 3.45 16.95Q4.475 17.2 5.288 17.337Q6.1 17.475 6.575 17.575Q5.45 16.525 4.838 15.075Q4.225 13.625 4.225 12Q4.225 8.9 4.538 6.675Q4.85 4.45 5.3 2.875Q5.35 2.625 5.625 2.425Q5.9 2.225 6.2 2.225Q6.725 2.225 6.988 2.575Q7.25 2.925 7.125 3.45Q6.85 4.45 6.688 5.262Q6.525 6.075 6.45 6.575Q7.55 5.425 8.963 4.825Q10.375 4.225 12 4.225Q15.1 4.225 17.325 4.537Q19.55 4.85 21.125 5.275Q21.375 5.35 21.575 5.625Q21.775 5.9 21.775 6.2Q21.775 6.725 21.425 6.987Q21.075 7.25 20.55 7.1Q19.6 6.825 18.85 6.675Q18.1 6.525 17.5 6.475Q18.6 7.55 19.188 8.963Q19.775 10.375 19.775 12Q19.775 15.075 19.438 17.337Q19.1 19.6 18.7 21.1Q18.625 21.375 18.363 21.575Q18.1 21.775 17.8 21.775ZM12 17.9Q14.475 17.9 16.188 16.175Q17.9 14.45 17.9 12Q17.9 9.525 16.175 7.812Q14.45 6.1 12 6.1Q9.55 6.1 7.825 7.825Q6.1 9.55 6.1 12Q6.1 14.45 7.825 16.175Q9.55 17.9 12 17.9Z"/></svg>
